X:1
T:Title
%%score { ( 1 2 5 ) | ( 3 4 ) }
L:1/8
M:6/8
K:F
V:1 treble nm="Grand Piano"
V:2 treble 
V:5 treble 
V:3 bass 
V:4 bass 
V:1
 z3 z2[Q:1/4=100] C | C2 F FGA | [FA]2 G F2 G | A2 F FEF |[M:5/8] [EG]-[EG]- [EG]3 | %5
[M:1/8] C[K:bass] |[M:3/4] C2[K:treble] [EG][EG] [FA][GB] | [GB]2 [FA] [EG]2 [GB] | %8
 [Ac]2 [GB][GB] [FA][EG] |[M:5/8] A-A- A3 |[M:1/8] A/B/ |[M:3/4] c2 c d2 A | c2 B B2 [CEB] | %13
 [=B,FA]2 [B,FA]A z [B,F] |[M:5/8] [CEG]-[CEG]- [CEG]3 |[M:1/8] C |[M:3/4] C2 FF GA | %17
[M:7/8] [Fc]2 [FB] [Fd]3 [DFB] |[M:3/4] [CFA]2 [Fc]E- [EA][B,EG] | [A,F]6 | [Ac]4 z2 | [Ac]6 | %22
 [GB]4 z2 | [GB]6 | AA AA Bc | [Fd]2 [DFB] [DFB]2 [DFG] | [CFc]2 [CFA][B,EG] [FA][B,CG] | %27
[M:5/8] [F,A,CF]-[F,A,CF]- [F,A,CF]3 |] %28
V:2
 z3 z z z/ A,/ | x6 | x6 | x6 |[M:5/8] x5 |[M:1/8] z/[K:bass] E,/ |[M:3/4] x2[K:treble] x4 | x6 | %8
 x6 |[M:5/8] x5 |[M:1/8] x |[M:3/4] x6 | x6 | z2 z .[=B,F]3 |[M:5/8] x5 |[M:1/8] x |[M:3/4] x6 | %17
[M:7/8] x7 |[M:3/4] z2 z [B,G] z2 | x6 | CC .C2 B[CFA] | C2 C .C3 | CC .C2 A[CEG] | C2 C .C3 | x6 | %25
 x6 | x6 |[M:5/8] x5 |] %28
V:3
 z3 z2 [F,A,]/F,/ | [F,A,]2 [F,A,C] [F,C]-[F,B,C][F,CF] | [C,C]2 [C,B,C] [F,A,C]2 [F,B,C] | %3
 [F,CF]2 [A,C] [A,C][G,B,][F,A,C] |[M:5/8] [C,C]-[C,C]- [C,C]3 |[M:1/8] [C,E,]/C,/ | %6
[M:3/4] [C,E,]2 [C,C] [C,C]2 [C,C] | [C,C]2 [C,C] [C,C]2 [C,C] | [C,C]2 [C,C] [C,C]2 [C,C] | %9
[M:5/8] [F,CF]-[F,CF]- [F,CF]3 |[M:1/8] [F,F]/[F,F]/ |[M:3/4] [F,A,F]2 [F,A,F] [F,B,F]2 [F,CF] | %12
 [G,CE]2 [G,CE] [G,CE]2 C, | D,2 .D,2 GD, |[M:5/8] C,-C,- C,3 |[M:1/8] [E,B,] | %16
[M:3/4] [F,A,]2 [F,A,C][F,C]- [F,B,C][F,CF] |[M:7/8] [_E,A,]2 [D,B,] [B,,B,]3 B,, | %18
[M:3/4] C,2 .[C,A,]2 CC, | F,6 | F,F, .F,2 GF, | F,2 F, .F,3 | C,C, .C,2 FC, | C,2 C, .C,3 | %24
 [F,CF][F,CF] .[F,CF]2 G,[F,A,F] | [B,,B,]2 B,, B,,2 B,, | A,,2 .C,2 CC, |[M:5/8] F,,-F,,- F,,3 |] %28
V:4
 x6 | z3 .A,3 | x6 | x6 |[M:5/8] x5 |[M:1/8] x |[M:3/4] x6 | x6 | x6 |[M:5/8] x5 |[M:1/8] x | %11
[M:3/4] x6 | x6 | z2 z .D,3 |[M:5/8] x5 |[M:1/8] x |[M:3/4] z2 z A, z2 |[M:7/8] x7 | %18
[M:3/4] z2 z .C,3 | x6 | z2 z .F,3 | x6 | z2 z .C,3 | x6 | z2 z .[F,F]3 | x6 | z2 z .C,3 | %27
[M:5/8] x5 |] %28
V:5
 x6 | x6 | x6 | x6 |[M:5/8] x5 |[M:1/8] x/[K:bass] x/ |[M:3/4] x2[K:treble] x4 | x6 | x6 | %9
[M:5/8] x5 |[M:1/8] x |[M:3/4] x6 | x6 | x6 |[M:5/8] x5 |[M:1/8] x |[M:3/4] x6 |[M:7/8] x7 | %18
[M:3/4] x6 | x6 | z2 z .C3 | x6 | z2 z .C3 | x6 | x6 | x6 | x6 |[M:5/8] x5 |] %28

